src/modules/75-cf/pages/onboarding/views/flag-id.svg

<svg fill="none" height="101" viewBox="0 0 248 101" width="248" xmlns="http://www.w3.org/2000/svg"><path d="m174.495 98.4932h3.845v-.9396h-2.725v-5.2477h-1.12zm6.365-6.1873h-1.121v6.1873h1.121zm2.466 0h-1.229l2.178 6.1873h1.384l2.181-6.1873h-1.233l-1.607 4.8701h-.063zm5.754 6.1873h4.049v-.9396h-2.928v-1.6888h2.695v-.9396h-2.695v-1.6797h2.903v-.9396h-4.024z" fill="#b0b1c4"/><path d="m45.0423 94.3935c-.1904-1.3746-1.2478-2.1722-2.6193-2.1722-1.6163 0-2.8339 1.1783-2.8339 3.1782 0 1.997 1.2024 3.1783 2.8339 3.1783 1.4712 0 2.4471-.9517 2.6193-2.133l-1.1299-.006c-.142.7251-.7342 1.1329-1.4743 1.1329-1.0031 0-1.7221-.7522-1.7221-2.1722 0-1.3957.713-2.1721 1.7251-2.1721.7522 0 1.3414.4259 1.4713 1.1661zm6.9804 1.006c0-1.9999-1.2205-3.1782-2.8429-3.1782-1.6253 0-2.8428 1.1783-2.8428 3.1782 0 1.997 1.2175 3.1783 2.8428 3.1783 1.6224 0 2.8429-1.1783 2.8429-3.1783zm-1.1269 0c0 1.4079-.7069 2.1722-1.716 2.1722-1.006 0-1.716-.7643-1.716-2.1722 0-1.4078.71-2.1721 1.716-2.1721 1.0091 0 1.716.7643 1.716 2.1721zm4.7086 3.0937c1.8852 0 3.003-1.1662 3.003-3.0997 0-1.9275-1.1178-3.0876-2.9607-3.0876h-2.139v6.1873zm-.9758-.9698v-4.2477h.9546c1.2568 0 1.9124.7009 1.9124 2.1178 0 1.4229-.6556 2.1299-1.9456 2.1299zm5.4691.9698h4.0483v-.9396h-2.9275v-1.6888h2.6948v-.9396h-2.6948v-1.6797h2.9033v-.9396h-4.0241z" fill="#b0b1c4"/><rect fill="#fff" height="79.4953" rx="1.7923" stroke="#4f5162" stroke-width="1.7923" width="118.596" x="128.508" y=".897125"/><path d="m129.67 10.3799h116.272" stroke="#4f5162" stroke-width=".896148"/><rect fill="#4f5162" height="10.3783" rx="1.7923" width="118.312" x="128.65" y=".000977"/><circle cx="134.744" cy="6.09633" fill="#fff" r="1.98695"/><circle cx="140.989" cy="6.09633" fill="#fff" r="1.98695"/><circle cx="147.233" cy="6.09633" fill="#fff" r="1.98695"/><path d="m137.056 18.2549h33.3606v3.14722h-33.3606z" fill="#c4c4c4" opacity=".7"/><path d="m137.025 25.2666h33.1934v7.43135h-33.1934z" fill="#c4c4c4" opacity=".7"/><path d="m177.65 18.3311h61.4325v54.0012h-61.4325z" fill="#0092e4"/><g fill="#c4c4c4"><path d="m137.025 35.1768h33.1934v6.93593h-33.1934z" opacity=".7"/><path d="m137.025 45.085h33.1934v6.93593h-33.1934z" opacity=".7"/><path d="m137.025 55.4883h33.1934v6.93593h-33.1934z" opacity=".7"/><path d="m137.025 64.9014h33.1934v7.43135h-33.1934z" opacity=".7"/></g><path d="m184.717 46.5469 2.74 4.7217v2.8095h1.36v-2.8095l2.74-4.7217h-1.541l-1.842 3.3317h-.074l-1.842-3.3317zm14.157 3.7656c0-2.4344-1.486-3.8686-3.461-3.8686-1.978 0-3.46 1.4342-3.46 3.8686 0 2.4307 1.482 3.8686 3.46 3.8686 1.975 0 3.461-1.4342 3.461-3.8686zm-1.372 0c0 1.7136-.86 2.644-2.089 2.644-1.224 0-2.088-.9304-2.088-2.644 0-1.7137.864-2.644 2.088-2.644 1.229 0 2.089.9303 2.089 2.644zm7.455-3.7656v4.8063c0 .9451-.659 1.6217-1.692 1.6217-1.037 0-1.691-.6766-1.691-1.6217v-4.8063h-1.365v4.9203c0 1.618 1.214 2.7249 3.056 2.7249 1.835 0 3.056-1.1069 3.056-2.7249v-4.9203zm2.893 7.5312h1.364v-2.758h1.39l1.478 2.758h1.523l-1.629-2.986c.886-.3567 1.353-1.1142 1.353-2.1366 0-1.4378-.927-2.4086-2.655-2.4086h-2.824zm1.364-3.8906v-2.5007h1.25c1.019 0 1.475.4671 1.475 1.2687 0 .8017-.456 1.232-1.467 1.232zm-23.982 14.8906h1.364v-3.1993h3.13v-1.1437h-3.13v-2.0446h3.461v-1.1436h-4.825zm6.113 0h4.928v-1.1436h-3.564v-2.0557h3.281v-1.1437h-3.281v-2.0446h3.534v-1.1436h-4.898zm7.303 0 .622-1.857h2.831l.625 1.857h1.457l-2.655-7.5312h-1.685l-2.651 7.5312zm.989-2.9529 1.019-3.0338h.059l1.018 3.0338zm4.342-3.4347h2.328v6.3876h1.353v-6.3876h2.328v-1.1436h-6.009zm11.96-1.1436v4.8063c0 .9451-.658 1.6217-1.691 1.6217-1.037 0-1.692-.6766-1.692-1.6217v-4.8063h-1.364v4.9203c0 1.618 1.214 2.7249 3.056 2.7249 1.835 0 3.056-1.1069 3.056-2.7249v-4.9203zm2.893 7.5312h1.365v-2.758h1.39l1.478 2.758h1.522l-1.629-2.986c.887-.3567 1.354-1.1142 1.354-2.1366 0-1.4378-.927-2.4086-2.655-2.4086h-2.825zm1.365-3.8906v-2.5007h1.25c1.019 0 1.475.4671 1.475 1.2687 0 .8017-.456 1.232-1.468 1.232zm5.416 3.8906h4.928v-1.1436h-3.564v-2.0557h3.281v-1.1437h-3.281v-2.0446h3.534v-1.1436h-4.898z" fill="#effbff"/><path clip-rule="evenodd" d="m203.017 7.3509c-.756.41897-1.132 1.19886-.836 1.73309l8.076 14.56981c.296.5342 1.157.6285 1.913.2095.755-.419 1.132-1.1989.835-1.7331l-8.076-14.56975c-.296-.53423-1.157-.62853-1.912-.20955zm2.198.75012 5.12 9.23598c1.265-4.2152 9.567-1.4535 11.897-6.5949l-5.119-9.23591c-2.126 5.64031-11.047 1.63228-11.898 6.59483z" fill="#0092e4" fill-rule="evenodd"/><path d="m211.95 9.59936c-.416-1.27574-1.44-1.77323-2.475-1.4355-1.037.33835-1.568 1.34337-1.152 2.61914.416 1.2738 1.439 1.7738 2.475 1.4355 1.035-.3377 1.569-1.3434 1.152-2.61914zm-.719.23459c.294.89805.002 1.53275-.642 1.74285-.642.2094-1.254-.1304-1.547-1.0284-.293-.89804.001-1.53339.643-1.74282.643-.21005 1.253.13034 1.546 1.02837zm4.038-3.50116-.711.23207.878 2.69024-.035.01132-2.736-2.08397-.639.2088 1.288 3.94675.715-.2334-.878-2.68828.033-.01069 2.737 2.08137.636-.2075z" fill="#fff"/><rect fill="#fff" height="71.4627" rx="1.75316" stroke="#b0b1c4" stroke-width="1.70149" width="89.3283" x="17.8659" y="1.88786"/><rect fill="#d9dae6" height="3.58137" rx="1.79068" width="21.8861" x="28.9526" y="10.5889"/><rect fill="#d9dae6" height="3.58137" rx="1.79068" width="46.1598" x="28.9526" y="16.1592"/><rect fill="#d9dae6" height="3.58137" rx="1.79068" width="62.8729" x="28.9526" y="21.7314"/><rect fill="#d9dae6" height="3.58137" rx="1.79068" width="40.9867" x="28.9526" y="27.3027"/><rect height="30.9985" rx="2.18599" stroke="#0092e4" stroke-width=".83582" width="73.1791" x="25.3913" y="34.8818"/><path clip-rule="evenodd" d="m25.3911 32.1125c-.3957.2194-.5926.6277-.4376.9074l4.2284 7.6282c.155.2797.6057.329 1.0014.1097.3957-.2194.5926-.6277.4376-.9074l-4.2284-7.6282c-.155-.2797-.6056-.329-1.0014-.1097zm1.1788.3773 2.6804 4.8356c.6558-2.2034 4.9907-.7509 6.2018-3.4377l-2.6804-4.8356c-1.1037 2.948-5.7629.843-6.2018 3.4377z" fill="#0092e4" fill-rule="evenodd"/><rect fill="#d9dae6" height="3.58137" rx="1.79068" width="21.8861" x="30.5442" y="40.0361"/><rect fill="#d9dae6" height="3.58137" rx="1.79068" width="46.1598" x="30.5442" y="45.6084"/><rect fill="#d9dae6" height="3.58137" rx="1.79068" width="62.8729" x="30.5442" y="51.1787"/><rect fill="#d9dae6" height="3.58137" rx="1.79068" width="40.9867" x="30.5442" y="56.749"/><rect fill="#fff" height="71.4627" rx="1.75316" stroke="#b0b1c4" stroke-width="1.70149" width="89.3283" x="11.0595" y="6.99332"/><rect fill="#d9dae6" height="3.58137" rx="1.79068" width="21.8861" x="22.147" y="15.6924"/><rect fill="#d9dae6" height="3.58137" rx="1.79068" width="46.1598" x="22.147" y="21.2627"/><rect fill="#d9dae6" height="3.58137" rx="1.79068" width="62.8729" x="22.147" y="26.835"/><rect fill="#d9dae6" height="3.58137" rx="1.79068" width="40.9867" x="22.147" y="32.4062"/><rect height="30.9985" rx="2.18599" stroke="#0092e4" stroke-width=".83582" width="73.1791" x="18.5854" y="39.9853"/><path clip-rule="evenodd" d="m18.5852 37.2132c-.3957.2193-.5926.6277-.4376.9074l4.2284 7.6281c.155.2797.6056.3291 1.0014.1097.3957-.2193.5926-.6277.4376-.9074l-4.2284-7.6281c-.155-.2797-.6056-.3291-1.0014-.1097zm1.1791.3777 2.6804 4.8356c.6558-2.2035 4.9908-.751 6.2019-3.4378l-2.6804-4.8355c-1.1038 2.9479-5.763.843-6.2019 3.4377z" fill="#0092e4" fill-rule="evenodd"/><rect fill="#d9dae6" height="3.58137" rx="1.79068" width="21.8861" x="23.7385" y="45.1396"/><rect fill="#d9dae6" height="3.58137" rx="1.79068" width="46.1598" x="23.7385" y="50.7119"/><rect fill="#d9dae6" height="3.58137" rx="1.79068" width="62.8729" x="23.7385" y="56.2822"/><rect fill="#d9dae6" height="3.58137" rx="1.79068" width="40.9867" x="23.7385" y="61.8525"/><rect fill="#fff" height="71.4627" rx="1.75316" stroke="#b0b1c4" stroke-width="1.70149" width="89.3283" x="3.40324" y="12.9474"/><rect fill="#d9dae6" height="3.58137" rx="1.79068" width="21.8861" x="14.4902" y="21.6475"/><rect fill="#d9dae6" height="3.58137" rx="1.79068" width="46.1598" x="14.4902" y="27.2178"/><rect fill="#d9dae6" height="3.58137" rx="1.79068" width="62.8729" x="14.4902" y="32.79"/><rect fill="#d9dae6" height="3.58137" rx="1.79068" width="40.9867" x="14.4902" y="38.3613"/><rect height="30.9985" rx="2.18599" stroke="#0092e4" stroke-width=".83582" width="73.1791" x="10.9287" y="45.9404"/><path clip-rule="evenodd" d="m10.9285 43.1701c-.3957.2194-.5927.6277-.4376.9074l4.2283 7.6282c.1551.2797.6057.329 1.0014.1097.3958-.2194.5927-.6277.4377-.9074l-4.2284-7.6282c-.155-.2797-.6057-.329-1.0014-.1097zm1.1787.3773 2.6804 4.8356c.6558-2.2034 4.9907-.7509 6.2018-3.4378l-2.6804-4.8355c-1.1037 2.9479-5.7629.843-6.2018 3.4377z" fill="#0092e4" fill-rule="evenodd"/><rect fill="#d9dae6" height="3.58137" rx="1.79068" width="21.8861" x="16.0818" y="51.0947"/><rect fill="#d9dae6" height="3.58137" rx="1.79068" width="46.1598" x="16.0818" y="56.666"/><rect fill="#d9dae6" height="3.58137" rx="1.79068" width="62.8729" x="16.0818" y="62.2363"/><rect fill="#d9dae6" height="3.58137" rx="1.79068" width="40.9867" x="16.0818" y="67.8066"/><path d="m125.472 51.1388c.552-.5523.552-1.4479 0-2.0003l-9.002-9.0015c-.552-.5524-1.448-.5524-2 0s-.552 1.448 0 2.0003l8.001 8.0014-8.001 8.0013c-.552.5524-.552 1.448 0 2.0003.552.5524 1.448.5524 2 0zm-41.5479.4143h40.5479v-2.8289h-40.5479z" fill="#6b6d85" opacity=".2"/></svg>

<svg width="248" height="101" viewBox="0 0 248 101" fill="none" xmlns="http://www.w3.org/2000/svg">
<path d="M174.495 98.4932H178.34V97.5536H175.615V92.3059H174.495V98.4932ZM180.86 92.3059H179.739V98.4932H180.86V92.3059ZM183.326 92.3059H182.097L184.275 98.4932H185.659L187.84 92.3059H186.607L185 97.176H184.937L183.326 92.3059ZM189.08 98.4932H193.129V97.5536H190.201V95.8648H192.896V94.9252H190.201V93.2455H193.104V92.3059H189.08V98.4932Z" fill="#B0B1C4"/>
<path d="M45.0423 94.3935C44.8519 93.0189 43.7945 92.2213 42.423 92.2213C40.8067 92.2213 39.5891 93.3996 39.5891 95.3995C39.5891 97.3965 40.7915 98.5778 42.423 98.5778C43.8942 98.5778 44.8701 97.6261 45.0423 96.4448L43.9124 96.4388C43.7704 97.1639 43.1782 97.5717 42.4381 97.5717C41.435 97.5717 40.716 96.8195 40.716 95.3995C40.716 94.0038 41.429 93.2274 42.4411 93.2274C43.1933 93.2274 43.7825 93.6533 43.9124 94.3935H45.0423ZM52.0227 95.3995C52.0227 93.3996 50.8022 92.2213 49.1798 92.2213C47.5545 92.2213 46.337 93.3996 46.337 95.3995C46.337 97.3965 47.5545 98.5778 49.1798 98.5778C50.8022 98.5778 52.0227 97.3995 52.0227 95.3995ZM50.8958 95.3995C50.8958 96.8074 50.1889 97.5717 49.1798 97.5717C48.1738 97.5717 47.4638 96.8074 47.4638 95.3995C47.4638 93.9917 48.1738 93.2274 49.1798 93.2274C50.1889 93.2274 50.8958 93.9917 50.8958 95.3995ZM55.6044 98.4932C57.4896 98.4932 58.6074 97.327 58.6074 95.3935C58.6074 93.466 57.4896 92.3059 55.6467 92.3059H53.5077V98.4932H55.6044ZM54.6286 97.5234V93.2757H55.5832C56.84 93.2757 57.4956 93.9766 57.4956 95.3935C57.4956 96.8164 56.84 97.5234 55.55 97.5234H54.6286ZM60.0977 98.4932H64.146V97.5536H61.2185V95.8648H63.9133V94.9252H61.2185V93.2455H64.1218V92.3059H60.0977V98.4932Z" fill="#B0B1C4"/>
<rect x="128.508" y="0.897125" width="118.596" height="79.4953" rx="1.7923" fill="white" stroke="#4F5162" stroke-width="1.7923"/>
<path d="M129.67 10.3799H245.942" stroke="#4F5162" stroke-width="0.896148"/>
<rect x="128.65" y="0.000976562" width="118.312" height="10.3783" rx="1.7923" fill="#4F5162"/>
<circle cx="134.744" cy="6.09633" r="1.98695" fill="white"/>
<circle cx="140.989" cy="6.09633" r="1.98695" fill="white"/>
<circle cx="147.233" cy="6.09633" r="1.98695" fill="white"/>
<rect opacity="0.7" x="137.056" y="18.2549" width="33.3606" height="3.14722" fill="#C4C4C4"/>
<rect opacity="0.7" x="137.025" y="25.2666" width="33.1934" height="7.43135" fill="#C4C4C4"/>
<rect x="177.65" y="18.3311" width="61.4325" height="54.0012" fill="#0092E4"/>
<rect opacity="0.7" x="137.025" y="35.1768" width="33.1934" height="6.93593" fill="#C4C4C4"/>
<rect opacity="0.7" x="137.025" y="45.085" width="33.1934" height="6.93593" fill="#C4C4C4"/>
<rect opacity="0.7" x="137.025" y="55.4883" width="33.1934" height="6.93593" fill="#C4C4C4"/>
<rect opacity="0.7" x="137.025" y="64.9014" width="33.1934" height="7.43135" fill="#C4C4C4"/>
<path d="M184.717 46.5469L187.457 51.2686V54.0781H188.817V51.2686L191.557 46.5469H190.016L188.174 49.8786H188.1L186.258 46.5469H184.717ZM198.874 50.3125C198.874 47.8781 197.388 46.4439 195.413 46.4439C193.435 46.4439 191.953 47.8781 191.953 50.3125C191.953 52.7432 193.435 54.1811 195.413 54.1811C197.388 54.1811 198.874 52.7469 198.874 50.3125ZM197.502 50.3125C197.502 52.0261 196.642 52.9565 195.413 52.9565C194.189 52.9565 193.325 52.0261 193.325 50.3125C193.325 48.5988 194.189 47.6685 195.413 47.6685C196.642 47.6685 197.502 48.5988 197.502 50.3125ZM204.957 46.5469V51.3532C204.957 52.2983 204.298 52.9749 203.265 52.9749C202.228 52.9749 201.574 52.2983 201.574 51.3532V46.5469H200.209V51.4672C200.209 53.0852 201.423 54.1921 203.265 54.1921C205.1 54.1921 206.321 53.0852 206.321 51.4672V46.5469H204.957ZM207.85 54.0781H209.214V51.3201H210.604L212.082 54.0781H213.605L211.976 51.0921C212.862 50.7354 213.329 49.9779 213.329 48.9555C213.329 47.5177 212.402 46.5469 210.674 46.5469H207.85V54.0781ZM209.214 50.1875V47.6868H210.464C211.483 47.6868 211.939 48.1539 211.939 48.9555C211.939 49.7572 211.483 50.1875 210.472 50.1875H209.214ZM185.232 65.0781H186.596V61.8788H189.726V60.7351H186.596V58.6905H190.057V57.5469H185.232V65.0781ZM191.345 65.0781H196.273V63.9345H192.709V61.8788H195.99V60.7351H192.709V58.6905H196.243V57.5469H191.345V65.0781ZM198.648 65.0781L199.27 63.2211H202.101L202.726 65.0781H204.183L201.528 57.5469H199.843L197.192 65.0781H198.648ZM199.637 62.1252L200.656 59.0914H200.715L201.733 62.1252H199.637ZM203.979 58.6905H206.307V65.0781H207.66V58.6905H209.988V57.5469H203.979V58.6905ZM215.939 57.5469V62.3532C215.939 63.2983 215.281 63.9749 214.248 63.9749C213.211 63.9749 212.556 63.2983 212.556 62.3532V57.5469H211.192V62.4672C211.192 64.0852 212.406 65.1921 214.248 65.1921C216.083 65.1921 217.304 64.0852 217.304 62.4672V57.5469H215.939ZM218.832 65.0781H220.197V62.3201H221.587L223.065 65.0781H224.587L222.958 62.0921C223.845 61.7354 224.312 60.9779 224.312 59.9555C224.312 58.5177 223.385 57.5469 221.657 57.5469H218.832V65.0781ZM220.197 61.1875V58.6868H221.447C222.466 58.6868 222.922 59.1539 222.922 59.9555C222.922 60.7572 222.466 61.1875 221.454 61.1875H220.197ZM225.613 65.0781H230.541V63.9345H226.977V61.8788H230.258V60.7351H226.977V58.6905H230.511V57.5469H225.613V65.0781Z" fill="#EFFBFF"/>
<path fill-rule="evenodd" clip-rule="evenodd" d="M203.017 7.3509C202.261 7.76987 201.885 8.54976 202.181 9.08399L210.257 23.6538C210.553 24.188 211.414 24.2823 212.17 23.8633C212.925 23.4443 213.302 22.6644 213.005 22.1302L204.929 7.56045C204.633 7.02622 203.772 6.93192 203.017 7.3509ZM205.215 8.10102L210.335 17.337C211.6 13.1218 219.902 15.8835 222.232 10.7421L217.113 1.50619C214.987 7.1465 206.066 3.13847 205.215 8.10102Z" fill="#0092E4"/>
<path d="M211.95 9.59936C211.534 8.32362 210.51 7.82613 209.475 8.16386C208.438 8.50221 207.907 9.50723 208.323 10.783C208.739 12.0568 209.762 12.5568 210.798 12.2185C211.833 11.8808 212.367 10.8751 211.95 9.59936ZM211.231 9.83395C211.525 10.732 211.233 11.3667 210.589 11.5768C209.947 11.7862 209.335 11.4464 209.042 10.5484C208.749 9.65036 209.043 9.01501 209.685 8.80558C210.328 8.59553 210.938 8.93592 211.231 9.83395ZM215.269 6.33279L214.558 6.56486L215.436 9.2551L215.401 9.26642L212.665 7.18245L212.026 7.39125L213.314 11.338L214.029 11.1046L213.151 8.41632L213.184 8.40563L215.921 10.487L216.557 10.2795L215.269 6.33279Z" fill="white"/>
<rect x="17.8659" y="1.88786" width="89.3283" height="71.4627" rx="1.75316" fill="white" stroke="#B0B1C4" stroke-width="1.70149"/>
<rect x="28.9526" y="10.5889" width="21.8861" height="3.58137" rx="1.79068" fill="#D9DAE6"/>
<rect x="28.9526" y="16.1592" width="46.1598" height="3.58137" rx="1.79068" fill="#D9DAE6"/>
<rect x="28.9526" y="21.7314" width="62.8729" height="3.58137" rx="1.79068" fill="#D9DAE6"/>
<rect x="28.9526" y="27.3027" width="40.9867" height="3.58137" rx="1.79068" fill="#D9DAE6"/>
<rect x="25.3913" y="34.8818" width="73.1791" height="30.9985" rx="2.18599" stroke="#0092E4" stroke-width="0.83582"/>
<path fill-rule="evenodd" clip-rule="evenodd" d="M25.3911 32.1125C24.9954 32.3319 24.7985 32.7402 24.9535 33.0199L29.1819 40.6481C29.3369 40.9278 29.7876 40.9771 30.1833 40.7578C30.579 40.5384 30.7759 40.1301 30.6209 39.8504L26.3925 32.2222C26.2375 31.9425 25.7869 31.8932 25.3911 32.1125ZM26.5699 32.4898L29.2503 37.3254C29.9061 35.122 34.241 36.5745 35.4521 33.8877L32.7717 29.0521C31.668 32.0001 27.0088 29.8951 26.5699 32.4898Z" fill="#0092E4"/>
<rect x="30.5442" y="40.0361" width="21.8861" height="3.58137" rx="1.79068" fill="#D9DAE6"/>
<rect x="30.5442" y="45.6084" width="46.1598" height="3.58137" rx="1.79068" fill="#D9DAE6"/>
<rect x="30.5442" y="51.1787" width="62.8729" height="3.58137" rx="1.79068" fill="#D9DAE6"/>
<rect x="30.5442" y="56.749" width="40.9867" height="3.58137" rx="1.79068" fill="#D9DAE6"/>
<rect x="11.0595" y="6.99332" width="89.3283" height="71.4627" rx="1.75316" fill="white" stroke="#B0B1C4" stroke-width="1.70149"/>
<rect x="22.147" y="15.6924" width="21.8861" height="3.58137" rx="1.79068" fill="#D9DAE6"/>
<rect x="22.147" y="21.2627" width="46.1598" height="3.58137" rx="1.79068" fill="#D9DAE6"/>
<rect x="22.147" y="26.835" width="62.8729" height="3.58137" rx="1.79068" fill="#D9DAE6"/>
<rect x="22.147" y="32.4062" width="40.9867" height="3.58137" rx="1.79068" fill="#D9DAE6"/>
<rect x="18.5854" y="39.9853" width="73.1791" height="30.9985" rx="2.18599" stroke="#0092E4" stroke-width="0.83582"/>
<path fill-rule="evenodd" clip-rule="evenodd" d="M18.5852 37.2132C18.1895 37.4325 17.9926 37.8409 18.1476 38.1206L22.376 45.7487C22.531 46.0284 22.9816 46.0778 23.3774 45.8584C23.7731 45.6391 23.97 45.2307 23.815 44.951L19.5866 37.3229C19.4316 37.0432 18.981 36.9938 18.5852 37.2132ZM19.7643 37.5909L22.4447 42.4265C23.1005 40.223 27.4355 41.6755 28.6466 38.9887L25.9662 34.1532C24.8624 37.1011 20.2032 34.9962 19.7643 37.5909Z" fill="#0092E4"/>
<rect x="23.7385" y="45.1396" width="21.8861" height="3.58137" rx="1.79068" fill="#D9DAE6"/>
<rect x="23.7385" y="50.7119" width="46.1598" height="3.58137" rx="1.79068" fill="#D9DAE6"/>
<rect x="23.7385" y="56.2822" width="62.8729" height="3.58137" rx="1.79068" fill="#D9DAE6"/>
<rect x="23.7385" y="61.8525" width="40.9867" height="3.58137" rx="1.79068" fill="#D9DAE6"/>
<rect x="3.40324" y="12.9474" width="89.3283" height="71.4627" rx="1.75316" fill="white" stroke="#B0B1C4" stroke-width="1.70149"/>
<rect x="14.4902" y="21.6475" width="21.8861" height="3.58137" rx="1.79068" fill="#D9DAE6"/>
<rect x="14.4902" y="27.2178" width="46.1598" height="3.58137" rx="1.79068" fill="#D9DAE6"/>
<rect x="14.4902" y="32.79" width="62.8729" height="3.58137" rx="1.79068" fill="#D9DAE6"/>
<rect x="14.4902" y="38.3613" width="40.9867" height="3.58137" rx="1.79068" fill="#D9DAE6"/>
<rect x="10.9287" y="45.9404" width="73.1791" height="30.9985" rx="2.18599" stroke="#0092E4" stroke-width="0.83582"/>
<path fill-rule="evenodd" clip-rule="evenodd" d="M10.9285 43.1701C10.5328 43.3895 10.3358 43.7978 10.4909 44.0775L14.7192 51.7057C14.8743 51.9854 15.3249 52.0347 15.7206 51.8154C16.1164 51.596 16.3133 51.1877 16.1583 50.908L11.9299 43.2798C11.7749 43.0001 11.3242 42.9508 10.9285 43.1701ZM12.1072 43.5474L14.7876 48.383C15.4434 46.1796 19.7783 47.6321 20.9894 44.9452L18.309 40.1097C17.2053 43.0576 12.5461 40.9527 12.1072 43.5474Z" fill="#0092E4"/>
<rect x="16.0818" y="51.0947" width="21.8861" height="3.58137" rx="1.79068" fill="#D9DAE6"/>
<rect x="16.0818" y="56.666" width="46.1598" height="3.58137" rx="1.79068" fill="#D9DAE6"/>
<rect x="16.0818" y="62.2363" width="62.8729" height="3.58137" rx="1.79068" fill="#D9DAE6"/>
<rect x="16.0818" y="67.8066" width="40.9867" height="3.58137" rx="1.79068" fill="#D9DAE6"/>
<path opacity="0.2" d="M125.472 51.1388C126.024 50.5865 126.024 49.6909 125.472 49.1385L116.47 40.137C115.918 39.5846 115.022 39.5846 114.47 40.137C113.918 40.6894 113.918 41.585 114.47 42.1373L122.471 50.1387L114.47 58.14C113.918 58.6924 113.918 59.588 114.47 60.1403C115.022 60.6927 115.918 60.6927 116.47 60.1403L125.472 51.1388ZM83.9241 51.5531L124.472 51.5531L124.472 48.7242L83.9241 48.7242L83.9241 51.5531Z" fill="#6B6D85"/>
</svg>
